X: 1
T: Levantine's Barrel
M: 4/4
L: 1/8
R: barndance
K: Dmaj
|: f>e |
d>fA>d f2 f>e | d2 b>a ^g>a (3fed | c>eA>c e>Ac>e | d>ef>g a2 f>e |
d>fA>d f2 f>e | d2 b>a ^g>af>d | c>eA>c e>Ac>e |1 d2 f2 d2 :|
2 d2 A2 D2 ||
|: (3FGA |
B3 c d3 B | B>A^G>A F2 e>d | c>eA>c e>Ac>e | d>ef>g a3 A |
B2 c2 d2 c>B | B>A^G>A f3 d | c>eA>c e>Ac>e |1 d2 A2 D2 :|
2 d2 f2 d2 ||
